!!!COM: Jan Titelouze
!!!OPR: Hymnes de l'Eglise pour toucher sur l'orgue, avec les fugues et
!!!OPR: recherches sur leur plain-chant.
!!!OTL: Ave Maris Stella (Canon in diapente, 3rd verse only)
!!!ONB: Canon at the fifth below, following a half note.
!!!YOR: "Hymnes de l"eglise, etc. 1624" Modern ed. by Norbert Dufourcq
!!!YOR: Paris: Editions Bornemann, 1965, pp. 45-46.
**kern	**kern	**kern
*CF	*conseq	*guida
*k[]	*k[]	*k[]
*d:	*d:	*d:
*M4/4	*M4/4	*M4/4
=1-	=1-	=1-
1D	2r	2a
.	2d	2b
=2	=2	=2
1A	2e	4cc
.	.	4b
.	4f	2a
.	4e	.
=3	=3	=3
1B	2d	8dd
.	.	8cc
.	.	8dd
.	.	8cc
.	8g	[2b
.	8f	.
.	8g	.
.	8f	.
=4	=4	=4
1G	2.e	4b]
.	.	4a
.	.	4g
.	4d	8a
.	.	8b
=5	=5	=5
1A	4c	4.cc
.	8d	.
.	8e	8b
.	4.f	4a
.	.	8b
.	8e	8cc
=6	=6	=6
1B	4d	4.dd
.	8e	.
.	8f	8cc
.	4.g	4.b
.	8f	16cc
.	.	16dd
=7	=7	=7
1c	4.e	4ee
.	.	8ee
.	16f	8dd
.	16g	.
.	4a	8cc
.	.	8dd
.	8a	8cc
.	8g	8b
=8	=8	=8
1d	8f	4a
.	8g	.
.	8f	4a
.	8e	.
.	4d	4.b
.	4d	.
.	.	8b
=9	=9	=9
1c	4.e	8cc
.	.	8b
.	.	8a
.	8e	8g
.	8f	[2a
.	8e	.
.	8d	.
.	8c	.
=10	=10	=10
1B	2.d	4a]
.	.	4a
.	.	[2g
.	4d	.
=11	=11	=11
1A	2.c	4g]
.	.	4g
.	.	2f#
.	4c	.
=12	=12	=12
1G	2B	4r
.	.	2dd
.	4r	.
.	[4g	8cc
.	.	8b
=13	=13	=13
1A	4g]	2cc
.	8f	.
.	8e	.
.	2f	4r
.	.	8cc
.	.	8dd
=14	=14	=14
1A	4r	4ee
.	8f	4dd
.	8g	.
.	4a	[2cc
.	4g	.
=15	=15	=15
1A	2.f	4cc]
.	.	4b
.	.	4a
.	4e	4g
=16	=16	=16
1D	4d	4f
.	4c	4e
.	4B	4d
.	4A	8e
.	.	8f
=17	=17	=17
1E	4G	2g
.	8A	.
.	8B	.
.	2c	2r
=18	=18	=18
1G	2r	4b
.	.	2b
.	4e	.
.	[4e	8a
.	.	8g
=19	=19	=19
1F	4e]	4a
.	8d	2a
.	8c	.
.	4d	.
.	[4d	8g
.	.	8f
=20	=20	=20
1E	4d]	8g
.	.	8f
.	8c	8e
.	8B	8d
.	8c	2e
.	8B	.
.	8A	.
.	8G	.
=21	=21	=21
1D	2A	2f
.	2B-	4e
.	.	4d
=22	=22	=22
1F	4A	2c
.	4G	.
.	2F	2d
=23	=23	=23
1E	2G	4r
.	.	2g
.	4r	.
.	[4c	8f
.	.	8e
=24	=24	=24
1G	4c]	4d
.	8B	8e
.	8A	8f
.	4G	4g
.	8A	4f
.	8B	.
=25	=25	=25
1A	4c	2e
.	4B	.
.	2A	4ee
.	.	4dd
=26	=26	=26
1A	4a	4cc
.	4g	4b
.	4f	4.cc
.	4e	.
.	.	8b
=27	=27	=27
1D	4.f	8a
.	.	8g
.	.	2a
.	8e	.
.	8d	.
.	8c	.
.	[4d	8g
.	.	8f
=28	=28	=28
1E	4d]	2g
.	8c	.
.	8B	.
.	2c	8r
.	.	8g
.	.	8f
.	.	8e
=29	=29	=29
1F	8r	2a
.	8c	.
.	8B	.
.	8A	.
.	2d	8r
.	.	8a
.	.	8g
.	.	8f
=30	=30	=30
1E	8r	2g
.	8d	.
.	8c	.
.	8B	.
.	2c	8r
.	.	8g
.	.	8f
.	.	8e
=31	=31	=31
1D	8r	2f
.	8c	.
.	8B	.
.	8A	.
.	2B-	4r
.	.	4d
=32	=32	=32
1C	4r	4g
.	4G	2e
.	4c	.
.	[4A	8d
.	.	8c
=33	=33	=33
1E	4A]	4B
.	8G	2g
.	8F	.
.	4E	.
.	[4c	8f
.	.	8e
=34	=34	=34
1G	4c]	2.d
.	8B	.
.	8A	.
.	[2G	.
.	.	4d
=35	=35	=35
1E	4G]	[2g
.	4G	.
.	[2c	8g]
.	.	8e
.	.	8f
.	.	8g
=36	=36	=36
1F	8c]	2.a
.	8A	.
.	8B	.
.	8c	.
.	[2d	.
.	.	4a
=37	=37	=37
1E	4d]	2g#
.	4d	.
.	2c#	4a
.	.	4gn
=38	=38	=38
[1D	4d	4f
.	4c	8e
.	.	8d
.	4B	2g
.	8A	.
.	8G	.
=39	=39	=39
1D_	[1d	[1f#
=40	=40	=40
1D;]	1d;]	1f#;]
==	==	==
*-	*-	*-
!!!CDT: /1563///-/1633/10/25
!!!OCY: Francais
!!!ODT: </1624//
!!!AFR: cantus firmus canon
!!!AST: polyphony
!!!AMT: simple quadruple
!!!AIN: organ
!!!YEP: David Huron and Denis Collins
!!!YEN: Canada
!!!EEV: 1.0
!!!RDT: 1995 June 3
!!!YED: 1995 August 31
